app/component-library/components/Icons/Icon/assets/lock.svg

<svg width="24" height="24" viewBox="0 0 24 24" fill="none" xmlns="http://www.w3.org/2000/svg">
<path d="M12.2809 17.3498C13.1811 17.3498 13.9109 16.6201 13.9109 15.7198C13.9109 14.8196 13.1811 14.0898 12.2809 14.0898C11.3807 14.0898 10.6509 14.8196 10.6509 15.7198C10.6509 16.6201 11.3807 17.3498 12.2809 17.3498Z" fill="currentColor"/>
<path d="M18.5608 9.53V8.28C18.5608 5.58 17.9108 2 12.2808 2C6.65076 2 6.00076 5.58 6.00076 8.28V9.53C3.20076 9.88 2.28076 11.3 2.28076 14.79V16.65C2.28076 20.75 3.53076 22 7.63076 22H16.9308C21.0308 22 22.2808 20.75 22.2808 16.65V14.79C22.2808 11.3 21.3608 9.88 18.5608 9.53ZM12.2808 18.74C10.6108 18.74 9.26076 17.38 9.26076 15.72C9.26076 14.05 10.6208 12.7 12.2808 12.7C13.9408 12.7 15.3008 14.06 15.3008 15.72C15.3008 17.39 13.9508 18.74 12.2808 18.74ZM7.63076 9.44C7.55076 9.44 7.48076 9.44 7.40076 9.44V8.28C7.40076 5.35 8.23076 3.4 12.2808 3.4C16.3308 3.4 17.1608 5.35 17.1608 8.28V9.45C17.0808 9.45 17.0108 9.45 16.9308 9.45H7.63076V9.44Z" fill="currentColor"/>
</svg>

<svg xmlns="http://www.w3.org/2000/svg" width="24" height="24" viewBox="0 0 24 24" fill="none"><path d="M12.28 17.35a1.63 1.63 0 1 0 .001-3.26 1.63 1.63 0 0 0 0 3.26z" fill="currentColor"/><path d="M18.56 9.53V8.28c0-2.7-.65-6.28-6.28-6.28S6 5.58 6 8.28v1.25c-2.8.35-3.72 1.77-3.72 5.26v1.86c0 4.1 1.25 5.35 5.35 5.35h9.3c4.1 0 5.35-1.25 5.35-5.35v-1.86c0-3.49-.92-4.91-3.72-5.26zm-6.28 9.21c-1.67 0-3.02-1.36-3.02-3.02 0-1.67 1.36-3.02 3.02-3.02a3.03 3.03 0 0 1 3.02 3.02c0 1.67-1.35 3.02-3.02 3.02zm-4.65-9.3H7.4V8.28c0-2.93.83-4.88 4.88-4.88s4.88 1.95 4.88 4.88v1.17H7.63v-.01z" fill="currentColor"/></svg>
